public/img/vk.svg

<svg xmlns="http://www.w3.org/2000/svg"  viewBox="0 0 48 48" width="48px" height="48px"><path fill="#1976d2" d="M24 4A20 20 0 1 0 24 44A20 20 0 1 0 24 4Z"/><path fill="#fff" d="M35.937,18.041c0.046-0.151,0.068-0.291,0.062-0.416C35.984,17.263,35.735,17,35.149,17h-2.618 c-0.661,0-0.966,0.4-1.144,0.801c0,0-1.632,3.359-3.513,5.574c-0.61,0.641-0.92,0.625-1.25,0.625C26.447,24,26,23.786,26,23.199 v-5.185C26,17.32,25.827,17,25.268,17h-4.649C20.212,17,20,17.32,20,17.641c0,0.667,0.898,0.827,1,2.696v3.623 C21,24.84,20.847,25,20.517,25c-0.89,0-2.642-3-3.815-6.932C16.448,17.294,16.194,17,15.533,17h-2.643 C12.127,17,12,17.374,12,17.774c0,0.721,0.6,4.619,3.875,9.101C18.25,30.125,21.379,32,24.149,32c1.678,0,1.85-0.427,1.85-1.094 v-2.972C26,27.133,26.183,27,26.717,27c0.381,0,1.158,0.25,2.658,2c1.73,2.018,2.044,3,3.036,3h2.618 c0.608,0,0.957-0.255,0.971-0.75c0.003-0.126-0.015-0.267-0.056-0.424c-0.194-0.576-1.084-1.984-2.194-3.326 c-0.615-0.743-1.222-1.479-1.501-1.879C32.062,25.36,31.991,25.176,32,25c0.009-0.185,0.105-0.361,0.249-0.607 C32.223,24.393,35.607,19.642,35.937,18.041z"/></svg>

<?xml version="1.0" encoding="UTF-8" standalone="no"?>
<!DOCTYPE svg PUBLIC "-//W3C//DTD SVG 1.1//EN" "http://www.w3.org/Graphics/SVG/1.1/DTD/svg11.dtd">
<svg width="100%" height="100%" viewBox="0 0 48 48" version="1.1" xmlns="http://www.w3.org/2000/svg" xmlns:xlink="http://www.w3.org/1999/xlink" xml:space="preserve" xmlns:serif="http://www.serif.com/" style="fill-rule:evenodd;clip-rule:evenodd;stroke-linejoin:round;stroke-miterlimit:2;">
    <g transform="matrix(1.17552,0,0,1.17552,-4.21259,-4.21259)">
        <path d="M24,4C13.028,4 4,13.028 4,24C4,34.972 13.028,44 24,44C34.972,44 44,34.972 44,24C44,13.028 34.972,4 24,4Z" style="fill:rgb(25,118,210);fill-rule:nonzero;"/>
    </g>
    <g transform="matrix(1.17552,0,0,1.17552,-4.21259,-4.21259)">
        <path d="M35.937,18.041C35.983,17.89 36.005,17.75 35.999,17.625C35.984,17.263 35.735,17 35.149,17L32.531,17C31.87,17 31.565,17.4 31.387,17.801C31.387,17.801 29.755,21.16 27.874,23.375C27.264,24.016 26.954,24 26.624,24C26.447,24 26,23.786 26,23.199L26,18.014C26,17.32 25.827,17 25.268,17L20.619,17C20.212,17 20,17.32 20,17.641C20,18.308 20.898,18.468 21,20.337L21,23.96C21,24.84 20.847,25 20.517,25C19.627,25 17.875,22 16.702,18.068C16.448,17.294 16.194,17 15.533,17L12.89,17C12.127,17 12,17.374 12,17.774C12,18.495 12.6,22.393 15.875,26.875C18.25,30.125 21.379,32 24.149,32C25.827,32 25.999,31.573 25.999,30.906L25.999,27.934C26,27.133 26.183,27 26.717,27C27.098,27 27.875,27.25 29.375,29C31.105,31.018 31.419,32 32.411,32L35.029,32C35.637,32 35.986,31.745 36,31.25C36.003,31.124 35.985,30.983 35.944,30.826C35.75,30.25 34.86,28.842 33.75,27.5C33.135,26.757 32.528,26.021 32.249,25.621C32.062,25.36 31.991,25.176 32,25C32.009,24.815 32.105,24.639 32.249,24.393C32.223,24.393 35.607,19.642 35.937,18.041Z" style="fill:white;fill-rule:nonzero;"/>
    </g>
</svg>
